src/2-landmarks/vending-machine--insert-bottle.svg

<svg width="1300" height="1000" viewBox="0 0 1300 1000" fill="none" xmlns="http://www.w3.org/2000/svg"><path d="M1076 900h7V220c0-11.046-8.95-20-20-20H672c-11.046 0-20 8.954-20 20v680h7V222c0-8.284 6.716-15 15-15h387c8.28 0 15 6.716 15 15v678Z" fill="#000"/><path fill-rule="evenodd" clip-rule="evenodd" d="M1053 245c0-8.284-6.72-15-15-15H878c-8.284 0-15 6.716-15 15v440c0 8.284 6.716 15 15 15h160c8.28 0 15-6.716 15-15V245Zm-183 2v346h176V247c0-5.523-4.48-10-10-10H880c-5.523 0-10 4.477-10 10Zm176 436v-83H870v83c0 5.523 4.477 10 10 10h156c5.52 0 10-4.477 10-10Z" fill="#000"/><path d="M764.5 391a3.5 3.5 0 1 1 0 7h-23a3.5 3.5 0 1 1 0-7h23Z" fill="#000"/><path fill-rule="evenodd" clip-rule="evenodd" d="M751.612 370.995c.296.003.592.005.888.005 38.936 0 70.5-31.564 70.5-70.5S791.436 230 752.5 230 682 261.564 682 300.5a70.442 70.442 0 0 0 3.382 21.635l-14.487 12.156c-8.462 7.1-9.565 19.716-2.465 28.177l25.711 30.642c7.1 8.461 19.716 9.565 28.177 2.465l29.294-24.58Zm8.938-7.5C791.819 359.539 816 332.843 816 300.5c0-35.07-28.43-63.5-63.5-63.5S689 265.43 689 300.5c0 5.791.775 11.4 2.227 16.731l30.256-25.388c11.759-9.867 28.648-10.699 41.32-2.036l10.725-8.999c4.23-3.55 10.538-2.999 14.088 1.232l6.428 7.661c3.55 4.23 2.998 10.538-1.233 14.088l-10.724 8.999c6.33 13.983 2.578 30.472-9.181 40.338l-12.356 10.369Zm26.23-63.783a5 5 0 0 0 .616-7.044l-3.857-4.596a5 5 0 0 0-7.044-.617l-12.257 10.285-5.829-3.126a30.002 30.002 0 0 0-33.46 3.458l-48.022 40.296c-6.347 5.325-7.174 14.787-1.849 21.133l23.14 27.577c5.325 6.346 14.786 7.174 21.133 1.849l48.022-40.296a30 30 0 0 0 9.216-32.35l-2.066-6.284 12.257-10.285Z" fill="#000"/><path d="M0 900h1300v100H0V900Z" fill="#000"/></svg>

<svg width="1300" height="1000" viewBox="0 0 1300 1000" fill="none" xmlns="http://www.w3.org/2000/svg">
<path d="M1076 900H1083V220C1083 208.954 1074.05 200 1063 200H672C660.954 200 652 208.954 652 220V900H659V222C659 213.716 665.716 207 674 207H1061C1069.28 207 1076 213.716 1076 222V900Z" fill="black"/>
<path fill-rule="evenodd" clip-rule="evenodd" d="M1053 245C1053 236.716 1046.28 230 1038 230H878C869.716 230 863 236.716 863 245V685C863 693.284 869.716 700 878 700H1038C1046.28 700 1053 693.284 1053 685V245ZM870 247V593H1046V247C1046 241.477 1041.52 237 1036 237H880C874.477 237 870 241.477 870 247ZM1046 683V600H870V683C870 688.523 874.477 693 880 693H1036C1041.52 693 1046 688.523 1046 683Z" fill="black"/>
<path d="M764.5 391C766.433 391 768 392.567 768 394.5C768 396.433 766.433 398 764.5 398H741.5C739.567 398 738 396.433 738 394.5C738 392.567 739.567 391 741.5 391H764.5Z" fill="black"/>
<path fill-rule="evenodd" clip-rule="evenodd" d="M751.612 370.995C751.908 370.998 752.204 371 752.5 371C791.436 371 823 339.436 823 300.5C823 261.564 791.436 230 752.5 230C713.564 230 682 261.564 682 300.5C682 308.048 683.186 315.318 685.382 322.135L670.895 334.291C662.433 341.391 661.33 354.007 668.43 362.468L694.141 393.11C701.241 401.571 713.857 402.675 722.318 395.575L751.612 370.995ZM760.55 363.495C791.819 359.539 816 332.843 816 300.5C816 265.43 787.57 237 752.5 237C717.43 237 689 265.43 689 300.5C689 306.291 689.775 311.9 691.227 317.231L721.483 291.843C733.242 281.976 750.131 281.144 762.803 289.807L773.528 280.808C777.758 277.258 784.066 277.809 787.616 282.04L794.044 289.701C797.594 293.931 797.042 300.239 792.811 303.789L782.087 312.788C788.417 326.771 784.665 343.26 772.906 353.126L760.55 363.495ZM786.78 299.712C788.895 297.937 789.171 294.783 787.396 292.668L783.539 288.072C781.764 285.956 778.61 285.68 776.495 287.455L764.238 297.74L758.409 294.614C747.597 288.818 734.346 290.187 724.949 298.072L676.927 338.368C670.58 343.693 669.753 353.155 675.078 359.501L698.218 387.078C703.543 393.424 713.004 394.252 719.351 388.927L767.373 348.631C776.77 340.746 780.42 327.934 776.589 316.281L774.523 309.997L786.78 299.712Z" fill="black"/>
<path d="M0 900H1300V1000H0V900Z" fill="black"/>
</svg>
